X: 2022
T: Sally Goodin
C:Woodie Guthrie
B: steve tunes
M:4/4
L:1/8
R: Reel
Q: 1/4=120
K:A
V:1 
AB|:"A"cABc A2 AB|cABA F A2 B|cABc ABAF|[1"E"ECEA "A"F A2 B:|2"E"ECEA "A"F A3||
"A"ABcd e2 cd|efed cAcd|efed cdcB||[1"E"ABAF "A"EF AB:|2"E"ABAF "A"EF A2||
W: Looked down the road, seen my Sally comin'
W: Thought to my soul I'd kill myself a runnin'.
W: 
W: Goin' down the road and the road's mighty muddy
W: I'm so drunk that I can't stand steady.
W: 
W: Watermelon, cantaloupe, peach tree puddin'
W: Ain't half as sweet as my little Sally Goodin.
W: 
W: Stove lid's on, flap jacks a cookin'
W: Stack 'em up high for my pretty Sally Goodin'.
W: 
W: Kiss you all day and hug you all night
W: Me and my Sally gonna make it all right.
W: 
W: Tell you stories and sing you songs
W: Marry me Sally and you can't go wrong.
W: 
W: Possum up a gum stump, dog on the ground,
W: Pull my trigger and a possum comes down.
W: 
W: Bring you sody and bring you candy
W: Oh, my little Sally, won't that be dandy?
W: 
W: As we was watchin' the winding key
W: Sally got stung by a goggle eyed bee.
W: 
W: It's every time you hold my hand
W: I walk over to the promised land.
W: 
W: Sally come a kissin' me on my cheek
W: I jumped over the Buckeye Creek.
W: 
W: What you gonna do when the wind starts a blowin'?
W: Run straight home with my petticoat a showin'.
W: 
W: What you gonna do when the snow starts a flying?
W: Run home to mama just a squawling and crying.
W: 
W: I'm not a lyin' an' I'm not a kiddin'
W: Crazy 'bout th' gal what you call Sally Goodin.
W: 
W: It's the truth, I'll tell you well,
W: If I can't have Sally, I'm bound for hell.
W: 
W: Sally Goodin, Sally Goodin. Sally Goodin. Sally Goodin.
W: Sally Goodin. Sally Goodin. Sally Goody, Goody, Goodin.
% abcbook-tune_id 62a420d03b1b09849e35861a


% abcbook-boost 0
% abcbook-tablature 
% abcbook-transpose 
% abcbook-lastupdated 1654989887880
% abcbook-soundfonts 
% abcbook-repeats 3
% Rhythm Reel
% Titles One title
% Transcriptions Only 1 transcription
% Movement Has lots of stepwise movement
% Movement Has some stepwise movement
% Mode major
% Key A
% Time_signature 4/4
% Has_accompaniment_chords Has chords

